;FLAVOR:Marlin
;TIME:4705
;Filament used: 1.97955m
;Layer height: 0.2
;MINX:66.361
;MINY:66.352
;MINZ:0.2
;MAXX:159.187
;MAXY:168.648
;MAXZ:3.6
;Generated with Cura_SteamEngine master
M140 S50
M105
M190 S50
M104 S200
M105
M109 S200
M82 ;absolute extrusion mode
; Ender 3 Custom Start G-code
G92 E0 ; Reset Extruder
G28 ; Home all axes
G1 Z2.0 F3000 ; Move Z Axis up little to prevent scratching of Heat Bed
G1 X0.1 Y20 Z0.3 F5000.0 ; Move to start position
G1 X0.1 Y200.0 Z0.3 F1500.0 E15 ; Draw the first line
G1 X0.4 Y200.0 Z0.3 F5000.0 ; Move to side a little
G1 X0.4 Y20 Z0.3 F1500.0 E30 ; Draw the second line
G92 E0 ; Reset Extruder
G1 Z2.0 F3000 ; Move Z Axis up little to prevent scratching of Heat Bed
G1 X5 Y20 Z0.3 F5000.0 ; Move over to prevent blob squish
G92 E0
G92 E0
G1 F2700 E-5
;LAYER_COUNT:18
;LAYER:0
M107
G0 F6000 X82.783 Y74.316 Z0.2
;TYPE:SKIRT
G1 F2700 E0
G1 F1200 X83.654 Y73.432 E0.04128
G1 X83.869 Y73.237 E0.05093
G1 X84.109 Y73.026 E0.06156
G1 X85.245 Y72.056 E0.11124
G1 X85.752 Y71.636 E0.13314
G1 X86.783 Y70.878 E0.1757
G1 X87.133 Y70.651 E0.18958
G1 X87.38 Y70.496 E0.19928
G1 X88.48 Y69.824 E0.24215
G1 X89.085 Y69.464 E0.26556
G1 X90.19 Y68.889 E0.30699
G1 X90.454 Y68.77 E0.31663
G1 X90.768 Y68.634 E0.32801
G1 X92.056 Y68.102 E0.37436
G1 X92.746 Y67.827 E0.39906
G1 X93.958 Y67.424 E0.44154
G1 X94.307 Y67.33 E0.45356
G1 X94.605 Y67.254 E0.46379
G1 X95.932 Y66.937 E0.50917
G1 X96.57 Y66.792 E0.53093
G1 X97.809 Y66.584 E0.57272
G1 X98.119 Y66.55 E0.58309
G1 X98.455 Y66.518 E0.59432
G1 X99.84 Y66.41 E0.64052
G1 X100.595 Y66.362 E0.66568
G1 X101.808 Y66.352 E0.70603
G1 X102.128 Y66.367 E0.71668
G1 X102.472 Y66.389 E0.72815
G1 X103.91 Y66.502 E0.77613
G1 X104.575 Y66.564 E0.79834
G1 X105.787 Y66.746 E0.8391
G1 X106.115 Y66.814 E0.85024
G1 X106.454 Y66.89 E0.8618
G1 X107.829 Y67.222 E0.90885
G1 X108.514 Y67.398 E0.93237
G1 X109.655 Y67.758 E0.97216
G1 X109.939 Y67.865 E0.98226
G1 X110.277 Y67.999 E0.99435
G1 X111.585 Y68.543 E1.04147
G1 X112.242 Y68.827 E1.06527
G1 X113.363 Y69.39 E1.107
G1 X113.648 Y69.554 E1.11793
G1 X113.908 Y69.708 E1.12798
G1 X115.103 Y70.442 E1.17463
G1 X115.706 Y70.825 E1.19839
G1 X116.695 Y71.533 E1.23884
G1 X116.969 Y71.753 E1.25053
G1 X117.231 Y71.969 E1.26182
G1 X118.114 Y72.724 E1.30046
G1 X118.795 Y73.322 E1.33061
G1 X119.694 Y74.209 E1.37261
G1 X119.948 Y74.49 E1.38521
G1 X120.152 Y74.722 E1.39548
G1 X121.042 Y75.765 E1.44109
G1 X121.478 Y76.291 E1.46381
G1 X122.238 Y77.325 E1.50649
G1 X122.465 Y77.675 E1.52037
G1 X122.616 Y77.915 E1.5298
G1 X123.287 Y79.013 E1.5726
G1 X123.655 Y79.632 E1.59655
G1 X124.165 Y80.595 E1.63279
G1 X125.257 Y82.932 E1.71859
G1 X126.373 Y85.153 E1.80126
G1 X127.581 Y87.402 E1.88617
G1 X128.831 Y89.575 E1.96955
G1 X130.147 Y91.719 E2.05322
G1 X131.53 Y93.839 E2.13741
G1 X132.943 Y95.875 E2.21984
G1 X134.463 Y97.939 E2.30509
G1 X136.032 Y99.948 E2.38988
G1 X136.88 Y100.985 E2.43443
G1 X137.688 Y101.959 E2.47652
G1 X138.451 Y102.996 E2.51934
G1 X138.678 Y103.346 E2.53322
G1 X138.829 Y103.586 E2.54265
G1 X139.5 Y104.684 E2.58545
G1 X139.868 Y105.303 E2.6094
G1 X140.378 Y106.266 E2.64564
G1 X141.47 Y108.603 E2.73144
G1 X142.586 Y110.824 E2.81411
G1 X143.794 Y113.073 E2.89902
G1 X145.044 Y115.246 E2.9824
G1 X146.36 Y117.39 E3.06607
G1 X147.743 Y119.51 E3.15026
G1 X149.156 Y121.546 E3.23269
G1 X150.675 Y123.609 E3.3179
G1 X152.243 Y125.616 E3.40261
G1 X153.063 Y126.621 E3.44575
G1 X153.895 Y127.624 E3.48909
G1 X154.608 Y128.584 E3.52887
G1 X154.787 Y128.855 E3.53967
G1 X154.982 Y129.162 E3.55176
G1 X155.715 Y130.358 E3.59842
G1 X156.085 Y130.981 E3.62252
G1 X156.678 Y132.127 E3.66544
G1 X156.811 Y132.426 E3.67632
G1 X156.922 Y132.686 E3.68572
G1 X157.443 Y133.947 E3.7311
G1 X157.71 Y134.617 E3.75509
G1 X158.104 Y135.792 E3.79631
G1 X158.19 Y136.107 E3.80717
G1 X158.274 Y136.437 E3.8185
G1 X158.605 Y137.818 E3.86573
G1 X158.756 Y138.489 E3.88861
G1 X158.958 Y139.7 E3.92944
G1 X158.995 Y140.036 E3.94068
G1 X159.027 Y140.381 E3.95221
G1 X159.133 Y141.74 E3.99755
G1 X159.18 Y142.477 E4.02211
G1 X159.187 Y143.742 E4.06418
G1 X159.167 Y144.131 E4.07714
G1 X159.148 Y144.435 E4.08727
G1 X159.042 Y145.759 E4.13145
G1 X158.977 Y146.457 E4.15476
G1 X158.794 Y147.676 E4.19576
G1 X158.731 Y147.979 E4.20605
G1 X158.659 Y148.301 E4.21703
G1 X158.333 Y149.657 E4.26341
G1 X158.153 Y150.363 E4.28765
G1 X157.77 Y151.569 E4.32973
G1 X157.631 Y151.933 E4.34269
G1 X157.517 Y152.22 E4.35296
G1 X157.009 Y153.443 E4.39701
G1 X156.718 Y154.117 E4.42143
G1 X156.157 Y155.236 E4.46306
G1 X155.991 Y155.525 E4.47415
G1 X155.833 Y155.792 E4.48446
G1 X155.111 Y156.969 E4.53039
G1 X154.729 Y157.573 E4.55416
G1 X153.968 Y158.631 E4.59751
G1 X153.725 Y158.93 E4.61032
G1 X153.553 Y159.136 E4.61925
G1 X152.717 Y160.114 E4.66204
G1 X152.213 Y160.687 E4.68742
G1 X151.358 Y161.556 E4.72797
G1 X151.146 Y161.749 E4.7375
G1 X150.893 Y161.973 E4.74874
G1 X149.777 Y162.926 E4.79755
G1 X149.251 Y163.362 E4.82028
G1 X148.217 Y164.122 E4.86296
G1 X147.867 Y164.349 E4.87683
G1 X147.627 Y164.5 E4.88626
G1 X146.525 Y165.174 E4.92923
G1 X145.907 Y165.541 E4.95314
G1 X144.81 Y166.111 E4.99425
G1 X144.546 Y166.23 E5.00388
G1 X144.237 Y166.364 E5.01509
G1 X142.953 Y166.895 E5.0613
G1 X142.27 Y167.168 E5.08576
G1 X141.031 Y167.58 E5.12919
G1 X140.676 Y167.675 E5.14142
G1 X140.395 Y167.746 E5.15106
G1 X139.051 Y168.067 E5.19701
G1 X138.404 Y168.213 E5.21907
G1 X137.182 Y168.417 E5.26028
G1 X136.881 Y168.45 E5.27035
G1 X136.545 Y168.482 E5.28158
G1 X135.16 Y168.59 E5.32778
G1 X134.405 Y168.638 E5.35295
G1 X133.192 Y168.648 E5.39329
G1 X132.872 Y168.633 E5.40395
G1 X132.528 Y168.611 E5.41541
G1 X131.09 Y168.498 E5.46339
G1 X130.425 Y168.436 E5.4856
G1 X129.213 Y168.254 E5.52636
G1 X128.885 Y168.186 E5.53751
G1 X128.546 Y168.11 E5.54906
G1 X127.171 Y167.778 E5.59611
G1 X126.486 Y167.602 E5.61963
G1 X125.345 Y167.242 E5.65942
G1 X125.061 Y167.135 E5.66952
G1 X124.727 Y167.003 E5.68146
G1 X123.564 Y166.521 E5.72334
G1 X123.386 Y166.445 E5.72977
G1 X120.949 Y165.437 E5.81749
G1 X118.591 Y164.537 E5.90143
G1 X116.234 Y163.717 E5.98444
G1 X113.838 Y162.955 E6.06806
G1 X111.439 Y162.268 E6.15106
G1 X108.983 Y161.639 E6.23538
G1 X106.509 Y161.078 E6.31976
G1 X104.041 Y160.592 E6.40342
G1 X101.586 Y160.18 E6.48621
G1 X99.09 Y159.835 E6.57002
G1 X96.571 Y159.557 E6.65431
G1 X94.015 Y159.349 E6.73961
G1 X92.416 Y159.256 E6.79288
G1 X91.007 Y159.188 E6.8398
G1 X90.681 Y159.168 E6.85066
G1 X89.428 Y159.07 E6.89246
G1 X88.543 Y158.987 E6.92203
G1 X87.332 Y158.805 E6.96276
G1 X86.972 Y158.73 E6.97499
G1 X86.647 Y158.657 E6.98607
G1 X85.295 Y158.331 E7.03232
G1 X84.61 Y158.155 E7.05585
G1 X83.469 Y157.795 E7.09564
G1 X83.185 Y157.688 E7.10573
G1 X82.847 Y157.554 E7.11783
G1 X81.539 Y157.01 E7.16494
G1 X80.882 Y156.726 E7.18875
G1 X79.759 Y156.162 E7.23055
G1 X79.455 Y155.987 E7.24221
G1 X79.199 Y155.835 E7.25212
G1 X78.079 Y155.148 E7.29582
G1 X77.433 Y154.739 E7.32125
G1 X76.409 Y154.005 E7.36315
G1 X76.124 Y153.775 E7.37533
G1 X75.891 Y153.582 E7.3854
G1 X74.865 Y152.705 E7.43029
G1 X74.337 Y152.242 E7.45365
G1 X73.413 Y151.33 E7.49683
G1 X73.179 Y151.07 E7.50846
G1 X72.989 Y150.853 E7.51805
G1 X72.074 Y149.78 E7.56496
G1 X71.643 Y149.259 E7.58745
G1 X70.961 Y148.341 E7.62548
G1 X70.782 Y148.072 E7.63623
G1 X70.56 Y147.725 E7.64993
G1 X69.902 Y146.651 E7.69182
G1 X69.45 Y145.888 E7.72132
G1 X68.868 Y144.76 E7.76354
G1 X68.719 Y144.425 E7.77573
G1 X68.609 Y144.168 E7.78503
G1 X68.098 Y142.933 E7.82948
G1 X67.833 Y142.265 E7.85338
G1 X67.438 Y141.076 E7.89506
G1 X67.34 Y140.713 E7.90756
G1 X67.262 Y140.407 E7.91806
G1 X66.946 Y139.081 E7.9634
G1 X66.794 Y138.406 E7.98641
G1 X66.593 Y137.208 E8.02682
G1 X66.561 Y136.921 E8.03642
G1 X66.527 Y136.568 E8.04822
G1 X66.419 Y135.192 E8.09412
G1 X66.37 Y134.443 E8.11909
G1 X66.361 Y133.167 E8.16153
G1 X66.377 Y132.852 E8.17202
G1 X66.396 Y132.558 E8.18182
G1 X66.501 Y131.22 E8.22646
G1 X66.572 Y130.447 E8.25228
G1 X66.763 Y129.181 E8.29486
G1 X66.839 Y128.821 E8.3071
G1 X66.906 Y128.524 E8.31722
G1 X67.18 Y127.383 E8.35625
G1 X67.401 Y126.517 E8.38598
G1 X67.786 Y125.307 E8.42821
G1 X67.929 Y124.934 E8.4415
G1 X68.04 Y124.657 E8.45142
G1 X69.543 Y121.034 E8.58188
G1 X70.448 Y118.663 E8.66629
G1 X71.272 Y116.308 E8.74928
G1 X72.046 Y113.878 E8.8341
G1 X72.735 Y111.48 E8.91708
G1 X73.362 Y109.038 E9.00094
G1 X73.928 Y106.554 E9.08568
G1 X74.403 Y104.135 E9.16767
G1 X74.828 Y101.608 E9.2529
G1 X75.173 Y99.136 E9.33591
G1 X75.449 Y96.641 E9.4194
G1 X75.658 Y94.092 E9.50447
G1 X75.757 Y92.401 E9.56081
G1 X75.825 Y90.989 E9.60782
G1 X75.846 Y90.661 E9.61876
G1 X75.96 Y89.223 E9.66673
G1 X76.025 Y88.529 E9.68992
G1 X76.205 Y87.326 E9.73038
G1 X76.271 Y87.007 E9.74121
G1 X76.347 Y86.669 E9.75273
G1 X76.672 Y85.318 E9.79895
G1 X76.854 Y84.61 E9.82326
G1 X77.225 Y83.444 E9.86396
G1 X77.345 Y83.128 E9.8752
G1 X77.465 Y82.823 E9.8861
G1 X77.936 Y81.686 E9.92704
G1 X78.281 Y80.886 E9.95601
G1 X78.839 Y79.77 E9.99751
G1 X79.006 Y79.479 E10.00867
G1 X79.167 Y79.208 E10.01916
G1 X79.899 Y78.016 E10.06568
G1 X80.283 Y77.411 E10.08951
G1 X81.003 Y76.406 E10.13063
G1 X81.243 Y76.108 E10.14336
G1 X81.447 Y75.862 E10.15399
G1 X82.295 Y74.871 E10.19737
G1 X82.783 Y74.316 E10.22195
G0 F6000 X83.084 Y74.581
G1 F1200 X83.923 Y73.728 E10.26175
G1 X84.138 Y73.533 E10.2714
G1 X84.369 Y73.33 E10.28163
G1 X85.5 Y72.364 E10.3311
G1 X86.007 Y71.944 E10.353
G1 X87.001 Y71.214 E10.39401
G1 X87.351 Y70.987 E10.40789
G1 X87.589 Y70.837 E10.41725
G1 X88.685 Y70.168 E10.45995
G1 X89.29 Y69.808 E10.48337
G1 X90.354 Y69.253 E10.52328
G1 X90.618 Y69.134 E10.53291
G1 X90.921 Y69.004 E10.54388
G1 X92.205 Y68.473 E10.59009
G1 X92.895 Y68.198 E10.6148
G1 X94.062 Y67.81 E10.6557
G1 X94.411 Y67.716 E10.66773
G1 X94.698 Y67.643 E10.67757
G1 X96.021 Y67.327 E10.72282
G1 X96.659 Y67.182 E10.74458
G1 X97.852 Y66.981 E10.78482
G1 X98.162 Y66.947 E10.79519
G1 X98.486 Y66.917 E10.80601
G1 X99.865 Y66.809 E10.85202
G1 X100.62 Y66.761 E10.87718
G1 X101.789 Y66.752 E10.91606
G1 X102.109 Y66.767 E10.92672
G1 X102.441 Y66.787 E10.93778
G1 X103.717 Y66.887 E10.98035
G1 X104.538 Y66.963 E11.00777
G1 X105.706 Y67.138 E11.04705
G1 X106.034 Y67.206 E11.05819
G1 X106.361 Y67.279 E11.06934
G1 X107.73 Y67.609 E11.11618
G1 X108.415 Y67.785 E11.1397
G1 X109.514 Y68.133 E11.17804
G1 X109.798 Y68.24 E11.18813
G1 X110.124 Y68.369 E11.19979
G1 X111.426 Y68.91 E11.24669
G1 X112.083 Y69.194 E11.2705
G1 X113.164 Y69.737 E11.31073
G1 X113.449 Y69.901 E11.32167
G1 X113.7 Y70.049 E11.33136
G1 X114.743 Y70.688 E11.37204
G1 X115.491 Y71.162 E11.40149
G1 X116.444 Y71.845 E11.44049
G1 X116.718 Y72.065 E11.45218
G1 X116.971 Y72.274 E11.46309
G1 X117.962 Y73.122 E11.50647
G1 X118.531 Y73.622 E11.53167
G1 X119.398 Y74.477 E11.57217
G1 X119.652 Y74.758 E11.58477
G1 X119.848 Y74.981 E11.59464
G1 X120.734 Y76.02 E11.64006
G1 X121.17 Y76.546 E11.66278
G1 X121.902 Y77.543 E11.70392
G1 X122.129 Y77.893 E11.71779
G1 X122.275 Y78.124 E11.72688
G1 X122.943 Y79.217 E11.76949
G1 X123.311 Y79.836 E11.79344
G1 X123.803 Y80.765 E11.8284
G1 X124.889 Y83.088 E11.91369
G1 X126.043 Y85.386 E11.99922
G1 X127.225 Y87.586 E12.08229
G1 X128.486 Y89.778 E12.1664
G1 X129.804 Y91.925 E12.25019
G1 X131.183 Y94.04 E12.33416
G1 X132.625 Y96.118 E12.41829
G1 X134.154 Y98.194 E12.50404
G1 X135.694 Y100.166 E12.58726
G1 X136.612 Y101.288 E12.63548
G1 X137.38 Y102.214 E12.67549
G1 X138.115 Y103.214 E12.71677
G1 X138.342 Y103.564 E12.73065
G1 X138.488 Y103.795 E12.73973
G1 X139.156 Y104.888 E12.78234
G1 X139.524 Y105.507 E12.80629
G1 X140.016 Y106.436 E12.84126
G1 X141.102 Y108.759 E12.92655
G1 X142.256 Y111.057 E13.01207
G1 X143.438 Y113.257 E13.09514
G1 X144.699 Y115.449 E13.17925
G1 X146.017 Y117.596 E13.26304
G1 X147.396 Y119.711 E13.34702
G1 X148.838 Y121.789 E13.43114
G1 X150.354 Y123.847 E13.51616
G1 X151.926 Y125.859 E13.60108
G1 X152.802 Y126.933 E13.64718
G1 X153.587 Y127.879 E13.68806
G1 X154.274 Y128.805 E13.72641
G1 X154.453 Y129.076 E13.73721
G1 X154.641 Y129.372 E13.74888
G1 X155.371 Y130.562 E13.79531
G1 X155.741 Y131.185 E13.81941
G1 X156.312 Y132.29 E13.86078
G1 X156.445 Y132.589 E13.87166
G1 X156.552 Y132.839 E13.88071
G1 X157.072 Y134.095 E13.92592
G1 X157.339 Y134.765 E13.94991
G1 X157.718 Y135.897 E13.98962
G1 X157.804 Y136.212 E14.00048
G1 X157.885 Y136.53 E14.01139
G1 X158.214 Y137.906 E14.05845
G1 X158.365 Y138.577 E14.08132
G1 X158.56 Y139.744 E14.12067
G1 X158.597 Y140.08 E14.13192
G1 X158.629 Y140.412 E14.14301
G1 X158.734 Y141.765 E14.18815
G1 X158.781 Y142.502 E14.21271
G1 X158.788 Y143.721 E14.25325
G1 X158.768 Y144.11 E14.26621
G1 X158.749 Y144.404 E14.27601
G1 X158.643 Y145.722 E14.31999
G1 X158.578 Y146.42 E14.3433
G1 X158.402 Y147.595 E14.38282
G1 X158.339 Y147.898 E14.39311
G1 X158.27 Y148.208 E14.40368
G1 X157.983 Y149.407 E14.44468
G1 X157.765 Y150.264 E14.47409
G1 X157.397 Y151.426 E14.51463
G1 X157.258 Y151.79 E14.52759
G1 X157.148 Y152.066 E14.53747
G1 X156.642 Y153.285 E14.58137
G1 X156.351 Y153.959 E14.60579
G1 X155.811 Y155.037 E14.64589
G1 X155.645 Y155.326 E14.65698
G1 X155.492 Y155.584 E14.66695
G1 X154.773 Y156.755 E14.71266
G1 X154.391 Y157.359 E14.73643
G1 X153.658 Y158.378 E14.77818
G1 X153.415 Y158.677 E14.79099
G1 X153.249 Y158.876 E14.79961
G1 X152.416 Y159.85 E14.84224
G1 X151.912 Y160.423 E14.86762
G1 X151.089 Y161.26 E14.90666
G1 X150.877 Y161.453 E14.9162
G1 X150.633 Y161.669 E14.92703
G1 X149.522 Y162.618 E14.97563
G1 X148.996 Y163.054 E14.99836
G1 X147.999 Y163.786 E15.03949
G1 X147.649 Y164.013 E15.05337
G1 X147.418 Y164.159 E15.06246
G1 X146.32 Y164.83 E15.10526
G1 X145.702 Y165.197 E15.12916
G1 X144.646 Y165.747 E15.16876
G1 X144.382 Y165.866 E15.1784
G1 X144.084 Y165.995 E15.1892
G1 X142.804 Y166.524 E15.23526
G1 X142.121 Y166.797 E15.25973
G1 X140.927 Y167.194 E15.30158
G1 X140.572 Y167.289 E15.3138
G1 X140.302 Y167.357 E15.32306
G1 X138.963 Y167.677 E15.36885
G1 X138.316 Y167.823 E15.39091
G1 X137.138 Y168.02 E15.43063
G1 X136.837 Y168.053 E15.44071
G1 X136.514 Y168.083 E15.45149
G1 X135.135 Y168.191 E15.4975
G1 X134.38 Y168.239 E15.52266
G1 X133.211 Y168.248 E15.56154
G1 X132.891 Y168.233 E15.5722
G1 X132.559 Y168.213 E15.58326
G1 X131.283 Y168.113 E15.62583
G1 X130.462 Y168.037 E15.65326
G1 X129.294 Y167.862 E15.69254
G1 X128.966 Y167.794 E15.70368
G1 X128.639 Y167.721 E15.71482
G1 X127.27 Y167.391 E15.76166
G1 X126.585 Y167.215 E15.78518
G1 X125.486 Y166.867 E15.82352
G1 X125.202 Y166.76 E15.83362
G1 X124.881 Y166.633 E15.8451
G1 X121.108 Y165.069 E15.98095
G1 X118.717 Y164.157 E16.06606
G1 X116.383 Y163.344 E16.14826
G1 X113.955 Y162.573 E16.23299
G1 X111.52 Y161.875 E16.31724
G1 X109.065 Y161.247 E16.40152
G1 X106.629 Y160.694 E16.48461
G1 X104.119 Y160.2 E16.56969
G1 X101.636 Y159.784 E16.65343
G1 X99.117 Y159.435 E16.73801
G1 X96.611 Y159.158 E16.82187
G1 X94.073 Y158.952 E16.90656
G1 X92.451 Y158.858 E16.9606
G1 X91.026 Y158.789 E17.00805
G1 X90.712 Y158.769 E17.01851
G1 X89.459 Y158.671 E17.06032
G1 X88.581 Y158.589 E17.08965
G1 X87.413 Y158.413 E17.12893
G1 X87.053 Y158.338 E17.14116
G1 X86.741 Y158.268 E17.1518
G1 X85.394 Y157.944 E17.19788
G1 X84.709 Y157.768 E17.2214
G1 X83.61 Y157.42 E17.25974
G1 X83.326 Y157.313 E17.26984
G1 X83 Y157.184 E17.2815
G1 X81.698 Y156.643 E17.32839
G1 X81.041 Y156.359 E17.3522
G1 X79.959 Y155.816 E17.39246
G1 X79.655 Y155.641 E17.40413
G1 X79.408 Y155.494 E17.41369
G1 X78.293 Y154.81 E17.4572
G1 X77.647 Y154.401 E17.48263
G1 X76.66 Y153.694 E17.52301
G1 X76.375 Y153.464 E17.53519
G1 X76.15 Y153.277 E17.54492
G1 X75.128 Y152.404 E17.58962
G1 X74.6 Y151.941 E17.61298
G1 X73.71 Y151.062 E17.65459
G1 X73.476 Y150.802 E17.66622
G1 X73.293 Y150.593 E17.67546
G1 X72.382 Y149.525 E17.72215
G1 X71.951 Y149.004 E17.74464
G1 X71.294 Y148.119 E17.7813
G1 X71.115 Y147.85 E17.79205
G1 X70.901 Y147.516 E17.80524
G1 X70.157 Y146.299 E17.85268
G1 X69.794 Y145.685 E17.87641
G1 X69.234 Y144.598 E17.91707
G1 X69.085 Y144.263 E17.92927
G1 X68.978 Y144.015 E17.93825
G1 X68.47 Y142.786 E17.98248
G1 X68.205 Y142.118 E18.00639
G1 X67.824 Y140.972 E18.04655
G1 X67.726 Y140.609 E18.05906
